X:169
T:Gregory Grene on the Box
C:Terence "Cuz" Teahan
B:Terry "Cuz" Teahan "Sliabh Luachra on Parade" 1980
Z:Patrick Cavanagh
M:4/4
L:1/8
R:Reel
K:D
| B/c/d BA GEEG | EGGA GEEG | Bddd egge | dBge dBGB :| 
|: dBAG efge | dgbg egdB | AAGE A2GE | B/c/d ef gedB :|| 

